resources/svg/lego-o.svg

<svg xmlns="http://www.w3.org/2000/svg" viewBox="0 0 15 15" fill="none"><path d="M3.5 3H11.5V2H3.5V3ZM13 4.5V12.5H14V4.5H13ZM11.5 14H3.5V15H11.5V14ZM2 12.5V4.5H1V12.5H2ZM3.5 14C2.67157 14 2 13.3284 2 12.5H1C1 13.8807 2.11929 15 3.5 15V14ZM13 12.5C13 13.3284 12.3284 14 11.5 14V15C12.8807 15 14 13.8807 14 12.5H13ZM11.5 3C12.3284 3 13 3.67157 13 4.5H14C14 3.11929 12.8807 2 11.5 2V3ZM3.5 2C2.11929 2 1 3.11929 1 4.5H2C2 3.67157 2.67157 3 3.5 3V2ZM5 8H6V7H5V8ZM9 8H10V7H9V8ZM10.1 9.7C8.8 11.4333 6.2 11.4333 4.9 9.7L4.1 10.3C5.8 12.5667 9.2 12.5667 10.9 10.3L10.1 9.7ZM5 2.5V1.5H4V2.5H5ZM5.5 1H9.5V0H5.5V1ZM10 1.5V2.5H11V1.5H10ZM9.5 1C9.77614 1 10 1.22386 10 1.5H11C11 0.671573 10.3284 0 9.5 0V1ZM5 1.5C5 1.22386 5.22386 1 5.5 1V0C4.67157 0 4 0.671573 4 1.5H5Z" fill="black"/></svg>

<svg xmlns="http://www.w3.org/2000/svg" viewBox="0 0 15 15" fill="none"><path d="M3.5 3h8V2h-8v1zM13 4.5v8h1v-8h-1zM11.5 14h-8v1h8v-1zM2 12.5v-8H1v8h1zM3.5 14A1.5 1.5 0 012 12.5H1A2.5 2.5 0 003.5 15v-1zm9.5-1.5a1.5 1.5 0 01-1.5 1.5v1a2.5 2.5 0 002.5-2.5h-1zM11.5 3A1.5 1.5 0 0113 4.5h1A2.5 2.5 0 0011.5 2v1zm-8-1A2.5 2.5 0 001 4.5h1A1.5 1.5 0 013.5 3V2zM5 8h1V7H5v1zm4 0h1V7H9v1zm1.1 1.7a3.25 3.25 0 01-5.2 0l-.8.6c1.7 2.267 5.1 2.267 6.8 0l-.8-.6zM5 2.5v-1H4v1h1zM5.5 1h4V0h-4v1zm4.5.5v1h1v-1h-1zM9.5 1a.5.5 0 01.5.5h1A1.5 1.5 0 009.5 0v1zM5 1.5a.5.5 0 01.5-.5V0A1.5 1.5 0 004 1.5h1z" fill="currentColor"/></svg>
